X: 20932
Q: "Pathetically."
U: Q=!diminuendo(!
U: q=!diminuendo)!
M: 9/8
L: 1/16
K: Cm
!p!g>f |\
{d}e4 (dc) c3BG2 B2F2B,2 |\
{d}e2c2c2 c2G2c2 {d}e4g2 |\
!f!f2d2B2 {cd/e/f/g/=a} b2a2g2 f2d2(Bc/d/) |\
e3dc2 G2c2=B2 c4 :|
ED |\
!p!(eg3)e2 (db3)g2 f2d2(Bc/d/) |\
e3dc2 G2c2=B2 {d}c4ED |
E2e2g2 D2d2f2 B,2B2d2 |\
e3fHg2 G,2C2=B,2 {D}C4 |]


